X:1
T:Malade si fut
T:Jean Guyon
T:Source : Livre VII de chansons nouvelles à 4---Paris---N.du Chemin---1550. Editor : André Vierendeels (20/01/18).
T:Malade si fut
T:©
T:©
T:©
T:©
T:©
C:Jean Guyon
Z:©
%%score [ 1 2 3 4 ]
L:1/8
Q:1/4=120
M:2/2
K:C
V:1 treble nm="Soprano" snm="S"
V:2 treble nm="Alto" snm="A"
V:3 treble-8 nm="Tenor" snm="T"
V:4 bass nm="Bass" snm="B"
V:1
 z4 d2 dd | Bcdd e2 d2 | z2 d2 c2 B2 | AABG d2 G2 | z d c2 B2 G2 | A2 BG d2 GA | BGdc BA G2- | %7
w: Ma- la- de|si fut ma mi- gnon- ne,|quel- que iour,|et ie luy di- soy- e,|quel- que iour, et|ie luy di- soy- * *||
"^#" G2 F2 G4- | G4 z2 B2 | BBBB A2 B2 | c2 B2 z2 d2 | dddd cd e2 | d2 z2 z4 | G2 d2 B2 Ac | %14
w: * * e:|_ que|vous sert ce qu'on vous or-|don- ne, que|vous sert ce qu'on vous or- don-|ne,|fault que vo- stre me-|
 B2 G2 A4 | G4 z4 | d2 dd B2 B2 | c2 c2 d2 dd | c2 B2 A4 | z4 z2 G2- | G2 F2 E2 DD | F2 G2 A4 | %22
w: de- cin soy-|e,|si vous en- sei- gne-|ray la voy- e, pour|tost gua- rir,|pour|_ tost ga- rir sans|grand mi- ste-|
 A4 z2 A2 | AA d4 c2 | d2 f2 ed d2- | d2 c2 d4 | z8 | z4 z2 B2 | B2 B2 c4- | c2 B2 A2 G2 | %30
w: re, il|ne vous fault qu'un|bon cli- * * ste-|* * re,||tel|que le vous|_ pre- pa- re-|
 A2 G2 B2 B2 | c6 B2 | A2 G4 F2 | G4 z4 | d2 dd Bcdd | e2 d2 z2 d2 | c2 B2 AABG | A2 z2 d2 c2 | %38
w: ray, tel que le|vous pre-|pa- * re-|ray,|et si se- ray l'a- po- thi-|cai- re, car|moy mes- me le bail- le-|ray, car moy|
 B2 AA BG A2 | z GGA B2 A2- | A2 G4 F2 | G4 z4 | d2 dd Bcdd | e2 d2 z2 d2 | c2 B2 AABG | %45
w: mes- me le bail- le- ray,|car moy mes- me le|_ bail- le-|ray,|et si se- ray l'a- po- thi-|cai- re, car|moy mes- me le bail- le-|
 A2 z2 d2 c2 | B2 AA BG A2 | z GGA B2 A2- | A2 G4 F2 | G8- | G8 |] %51
w: ray, car moy|me- me le bail- le- ray,|car moy mes- me le|_ bail- le-|ray.|_|
V:2
 z8 | z4 G2 GG | EFGG A2 G2 | z2 G2 F2 E2 | DDEC D2 D2 | z2 G2 F2 E2 | D3 D D2 E2 | D4 B,2 D2 | %8
w: |Ma- la- de|si fut ma mi- gnon- ne,|quel- que iour,|et ie luy di- soy- e,|quel- que iour,|et ie luy di-|soy- e, que|
 DDDD CD E2 | D4 z4 | z2 G2 GGGG | F2 G2 A2 G2 | z4 z2 C2 | E2 D2 D2 F2 | ED G4 F2 | G2 G2 GGEE | %16
w: vous sert ce qu'on vous or- don-|ne,|que vous sert ce qu'on|vous or- don- ne,|fault|que vo- stre me-|de- cin soy- *|e, si vous en- sei- gne-|
 F2 F2 G2 GG | F2 E2 D4 | z2 G2 F2 F2 | DDDE F2 G2 | z8 | z2 E2 F3 G | A2 F2 E4 | z2 D2 DD G2- | %24
w: ray la voy- e, pour|tost gua- rir,|pour tost gua-|rir sans grand mi- ste- re,||sans grand mi-|ste- * re,|il ne vous fault|
 G2 F2 G2 F2 | E4 D4 | z8 | z4 z2 D2 | G2 G2 G4- | G2 F2 F2 E2 | D2 D2 G2 G2 | G6 F2 | F2 E2 D4 | %33
w: _ qu'un bon cli-|ste- re,||tel|que le vous|_ pre- pa- re-|ray, tel que le|vous pre-|pa- re- ray,|
 D2 DD B,2 G2 | GG F2 G4 | G2 GG EFGG | A2 G2 z2 G2 | F2 E2 DDEC | D4 G2 F2 | E4 D2 F2 | E2 E2 D4 | %41
w: et si se- ray l'a-|po- thi- cai- re,|et si se- ray l'a- po- thi-|cai- re, car|moy mes- me le bail- le-|ray, car moy|mes- me le|bail- le- ray,|
 D2 DD G2 GG | F2 G4 G2 | G2 GG EFGG | A2 G2 z2 G2 | F2 E2 DDEC | D4 G2 F2 | E4 D2 F2 | %48
w: et si se- ray l'a- po-|thi- cai- ,|et si se- ray l'a- po- thi-|cai- re, car|moy mes- me le bail- le-|ray, car moy|mes- me le|
 E2 E2 D2 D2 | B,4 E4 | D8 |] %51
w: bail- le- ray, le|bail- le-|ray.|
V:3
 d2 dd Bcdd | e2 d2 z2 d2 | c2 B2 AABG | d2 G2 z d c2 | B2 G3 ABG | d2 GA BG c2 | B2 GA B2 c2 | %7
w: Ma- la- de si fut ma mi-|gnon- ne, quel-|que iour, et ie luy di-|soy- e, quel- que|iour, et luy di- soy-|e, et ie luy di- soy-|e, et ie luy di-|
 A4 G4- | G4 z4 | z2 d2 dddd | cd e2 d2 G2 | d2 B2 A2 c2 | B2 G2 A4 | G4 z4 | z2 G2 d4 | %15
w: soy- e,|_|que vous sert ce qu'on|vous or- don- ne, fault|que vo- stre me-|de- cin soy-|e,|fault que|
 B2 G2 c2 BG | A4 G4 | z8 | z4 z2 d2 | ddBB c2 c2 | d2 dd c2 B2 | AABc d2 f2- | fe d4 c2 | %23
w: vo- stre me- de- cin|soy- e,||si|vous en- sei- gne- ray la|voy- e, pour tost gua-|rir sans grand mi- ste- *||
 d2 f2 ff e2 | d4 cc d2 | A2 A2 AAdc | d2 f2 e2 d2- | d2 c2 d2 B2 | d2 d2 e4- | e2 d2 c2 B2 | %30
w: re, il ne vous fault|qu'un bon bli- ste-|re, il ne vous fault qu'un|bon cli- ste- *|* * re, tel|que le vous|_ pre- pa- re-|
 A2 B2 d2 d2 | e6 d2 | c2 B2 A4 | G4 d2 dd | Bcdd e2 d2 | z2 d2 c2 B2 | AABG d2 z2 | d2 c2 B2 AA | %38
w: ray, tel que le|vous pre-|pa- * re|ray, et si se-|ray l'a- po- thi- cai- re,|car moy mes-|me le bail- le- ray,|car moy mes- me le|
 BG d2 z Gdd | B2 z2 d2 dd | B2 c2 A2 A2 | G4 d2 dd | Bcdd e2 d2 | z2 d2 c2 B2 | AABG d2 z2 | %45
w: bail- le- ray, le bail- le-|ray, car moy mes-|me le bail- le-|ray, et si se-|ray l'a- po- thi- cai- re,|car moy me-|sme le bail- le- ray,|
 d2 c2 B2 AA | BG d2 z Gdd | B2 z2 d2 dc | B2 c2 A2 A2 | G2 G2 c2 c2 | B8 |] %51
w: car moy mes- me le|bail- le- ray, le bail- le-|ray, car moy mes-|me le bail- le-|ray, le bail- le-|ray.|
V:4
 z8 | G,2 G,G, E,F,G,G, | A,2 G,2 z2 G,2 | F,2 E,2 D,D,E,C, | G,2 C,2 z2 G,2 | F,2 E,2 D,D,E,C, | %6
w: |Ma- la- de si fut ma mi-|gnon- ne, quel-|que iour, et ie luy di-|soy- e, quel-|que iour, et ie luy di-|
 G,6 C,2 | D,4 G,4- | G,4 z2 G,2 | G,G,G,G, F,2 G,2 | A,2 G,4 z2 | z4 z2 C,2 | G,2 E,2 D,2 F,2 | %13
w: soy- *|* e,-|* que|vous sert ce qu'on vous or-|don- ne,|fault|que vo- stre me-|
 E,D, G,4 F,2 | G,4 z2 D,2 | G,2 E,2 C,2 E,2 | D,C, D,2 G,4 | z4 G,2 G,G, | E,2 E,2 F,2 F,2 | %19
w: de- cin soy- *|e, fault|que vo- stre me-|de- cin soy- e,|si vous en|sei- gne- ray la|
 G,2 G,G, F,2 E,2 | D,4 z2 G,2 | F,2 E,2 D,2 D,2 | F,3 G, A,4 | D,4 z4 | z8 | z4 D,2 D,D, | %26
w: voy- e, pour tost gua-|rir, pour|tost gua- rir sans|grand mi- ste-|re,||il ne vous|
 G,2 F,2 G,2 F,2 | E,4 D,2 G,2 |"^#" G,2 G,2 C,4- | C,2 D,2 F,2 G,2 | D,2 G,2 G,2 G,2 | C,6 D,2 | %32
w: fault qu'un bon cli-|ste- re, tel|que le vous|_ pre- pa- re-|ray, tel que le|vous pre-|
 F,2 G,2 D,4 | G,8 | z4 G,2 G,G, | E,F,G,G, A,2 G,2 | z2 G,2 F,2 E,2 | D,D,E,C, G,2 z2 | %38
w: pa- re- ray,|_|et si se-|ray l'a- po- thi- cai- re,|car moy mes-|me le bail- le- ray,|
 G,2 F,2 E,2 D,D, | E,2 C,2 D,2 D,2 | E,2 C,2 D,4 | G,8 | z4 G,2 G,G, | E,F,G,G, A,2 G,2 | %44
w: car moy mes- me le|bail- le- ray, le|bail- * le-|ray,|et si se-|ray l'a- po- thi- cai- re,|
 z2 G,2 F,2 E,2 |"^#" D,D,E,C, G,2 z2 | G,2 F,2 E,2 D,D, | E,2 C,2 D,2 D,2 | E,2 C,2 D,2 D,2 | %49
w: car moy mes-|me le bail- le- ray,|car moy mes- me le|bail- le- ray, le|bail- le- ray, le|
 E,6 C,2 | G,8 |] %51
w: bail- le-|ray.|

